resources/haticons/SVG/office.svg

<!-- Generated by IcoMoon.io -->
<svg version="1.1" xmlns="http://www.w3.org/2000/svg" width="24" height="24" viewBox="0 0 24 24">
<title>office</title>
<path d="M0 24h12v-24h-12v24zM7.5 3h3v3h-3v-3zM7.5 9h3v3h-3v-3zM7.5 15h3v3h-3v-3zM1.5 3h3v3h-3v-3zM1.5 9h3v3h-3v-3zM1.5 15h3v3h-3v-3zM13.5 7.5h10.5v1.5h-10.5zM13.5 24h3v-6h4.5v6h3v-13.5h-10.5z"></path>
</svg>

<svg xmlns="http://www.w3.org/2000/svg" width="24" height="24"><path d="M0 24h12V0H0v24zM7.5 3h3v3h-3V3zm0 6h3v3h-3V9zm0 6h3v3h-3v-3zm-6-12h3v3h-3V3zm0 6h3v3h-3V9zm0 6h3v3h-3v-3zm12-7.5H24V9H13.5zm0 16.5h3v-6H21v6h3V10.5H13.5z"/></svg>
